X: 13
T: Missa La belle se siet / Gloria
N: Derived from Ort1003b-Missa_La_belle_se_siet-Gloria.krn
C: Marbrianus de Orto
%%abc-version 2.0
%%abcx-abcm2ps-target-version 5.9.1 (29 Sep 2008)
%%abc-creator hum2abc beta
%%abcx-conversion-date 2019/02/17 07:28:37
%%abc-edited-by Jesse Rodin
%%abc-edited-by Jesse Rodin 8/10/2013
%%abcx-initial-encoding-date 2013/08/10/
%%humdrum-veritas 184397733
%%humdrum-veritas-data 1788074126
%%linebreak <none>
%%barnumbers 0
L: 1/4
M: 3/1
Q: 1/2=120
%%staves [1 2 3 4]
V: 1 clef=treble
V: 2 clef=treble-8
V: 3 clef=treble-8
V: 4 clef=bass
K: Bb
[V:1] z12 | 
[V:2] c8d4- | 
[V:3] F8F4 | 
[V:4] z12 | 
[V:1] z12 | 
[V:2] d2c2B3AB4 | 
[V:3] G8G4 | 
[V:4] z12 | 
[V:1] =E8F4 | 
[V:2] A8D4 | 
[V:3] A4A2A4A2 | 
[V:4] A,,8D,4 | 
[V:1] =E4D8 | 
[V:2] =E4F8 | 
[V:3] A12- | 
[V:4] C,4D,8 | 
[V:1] =E4E2E4E2 | 
[V:2] =E4z2c2c2c2 | 
[V:3] A8A4 | 
[V:4] A,,4A,,2A,,4A,,2 | 
[V:1] =E8G4 | 
[V:2] A4G8 | 
[V:3] c12- | 
[V:4] A,,4C,8 | 
[V:1] A8G4 | 
[V:2] F4f4=e2d2- | 
[V:3] c8B4 | 
[V:4] F,4F,4G,4 | 
[V:1] G6^F=EF4 | 
[V:2] d2c2d8 | 
[V:3] G4A8 | 
[V:4] E,4D,8 | 
[V:1] G4z2G2G2G2 | 
[V:2] d4z2d2d2d2 | 
[V:3] G4z2G2G2G2 | 
[V:4] G,,4z2G,,2G,,2G,,2 | 
[V:1] D2D2=E2D2E2E2 | 
[V:2] B2B2c2d2G2=E2 | 
[V:3] G2F2G2G2G2A2 | 
[V:4] B,,2D,2C,2B,,2C,2C,2 | 
[V:1] D8z4 | 
[V:2] F4D4z4 | 
[V:3] B8z4 | 
[V:4] B,,8z4 | 
[V:1] F4F4G4- | 
[V:2] d4f4e4- | 
[V:3] B4B4B4- | 
[V:4] B,,4B,,4E,4- | 
[V:1] G4B8 | 
[V:2] e4d6=e2 | 
[V:3] B4B6AG | 
[V:4] E,4G,8 | 
[V:1] A4A4G2F2 | 
[V:2] f2=edc6A2 | 
[V:3] F4F4A4 | 
[V:4] D,4z2A,,2C,2D,2 | 
[V:1] F4=E6DE | 
[V:2] d4c8 | 
[V:3] B4G4G4 | 
[V:4] B,,4C,8 | 
[V:1] F8z4 | 
[V:2] A4c4z4 | 
[V:3] F8z4 | 
[V:4] F,,4z4z4 | 
[V:1] A6A2A4 | 
[V:2] f6f2f4 | 
[V:3] c6c2c4 | 
[V:4] F,6F,2F,4 | 
[V:1] B8A4 | 
[V:2] f8f4 | 
[V:3] d8c4 | 
[V:4] B,,8F,4 | 
[V:1] A4G6FG | 
[V:2] f4d8 | 
[V:3] A4B8 | 
[V:4] F,4G,8 | 
[V:1] A4z4A4 | 
[V:2] d4z4D4 | 
[V:3] A8z4 | 
[V:4] D,8D,2C,B,, | 
[V:1] c6B2A4 | 
[V:2] =E8=E4 | 
[V:3] A4A4c4 | 
[V:4] A,,8A,,4 | 
[V:1]  [K:F] G4B6B2 | 
[V:2]  [K:F] E4G6G2 | 
[V:3]  [K:F] c4d6d2 | 
[V:4]  [K:F] C,4G,,8 | 
[V:1] A6GFG4 | 
[V:2] A4d6cd | 
[V:3] c4B8 | 
[V:4] z12 | 
[V:1] A8z4 | 
[V:2] e8E4- | 
[V:3] A12 | 
[V:4] z4A,,8 | 
[V:1] z12 | 
[V:2] E2F2G2A2B4 | 
[V:3] z12 | 
[V:4] C,8D,4 | 
[V:1] z12 | 
[V:2] A6GFG4 | 
[V:3] z12 | 
[V:4] C,4B,,8 | 
[V:1] E6F6 | 
[V:2] A8F2D2 | 
[V:3] c8d4 | 
[V:4] A,,8B,,4 | 
[V:1] E2G4FED4 | 
[V:2] G6D2G4 | 
[V:3] c4B8 | 
[V:4] C,4G,,8 | 
[V:1] E4E2E4E2 | 
[V:2] z2c4c4c2 | 
[V:3] A4A2A4A2 | 
[V:4] A,,4A,,2A,,4C,2 | 
[V:1] F2E2F2E2F4 | 
[V:2] A2e2d2c2d4 | 
[V:3] A2A2A2A2A4 | 
[V:4] D,2C,2D,2A,,2D,4 | 
[V:1] E8z4 | 
[V:2] c4z4z4 | 
[V:3] c8B4 | 
[V:4] A,,3B,,C,D,E,F,G,4 | 
[V:1] z12 | 
[V:2] z12 | 
[V:3] A4G8 | 
[V:4] F,6E,D,E,4 | 
[V:1] c8B4 | 
[V:2] A3Bcdefg4 | 
[V:3] F4z4z4 | 
[V:4] F,4z4z4 | 
[V:1] A4G8 | 
[V:2] f6ede4 | 
[V:3] z12 | 
[V:4] z12 | 
[V:1] F4z4z4 | 
[V:2] f4z4c4 | 
[V:3] c6B2A2G2 | 
[V:4] F,4F,4F,2E,2 | 
[V:1] A6G2F2F2 | 
[V:2] d3cA2c4=B2 | 
[V:3] F4z4F4 | 
[V:4] D,3E,F,2C,2D,4 | 
[V:1] E8D4 | 
[V:2] c8z4 | 
[V:3] G8B4- | 
[V:4] C,8B,,4 | 
[V:1] G4^F6EF | 
[V:2] d4d4d4 | 
[V:3] B4A8 | 
[V:4] G,,4D,8 | 
[V:1] G4z4B4 | 
[V:2] d4z2B3cde | 
[V:3] G12 | 
[V:4] G,,8G,2G,2 | 
[V:1] A2F2G4F4 | 
[V:2] f4z2B2c2B2 | 
[V:3] z4B4A2F2 | 
[V:4] F,2D,2_E,4z2D,2 | 
[V:1] z4c4B2A2 | 
[V:2] c2d2fedcd4 | 
[V:3] G4F4z4 | 
[V:4] C,2B,,2A,,4z2D,2 | 
[V:1] G4F4B4 | 
[V:2] z2G2c2f2d3e | 
[V:3] B4A2F2G4 | 
[V:4] _E,4F,4z4 | 
[V:1] A2F2G4F2c2- | 
[V:2] f4B2c2A3G | 
[V:3] F4z4z4 | 
[V:4] D,4_E,2C,2D,2C,B,, | 
[V:1] cBAGA4G4 | 
[V:2] ABc4f2d4- | 
[V:3] c8B4 | 
[V:4] A,,G,,F,,2F,4z2G,2 | 
[V:1] F6EFE4 | 
[V:2] d2c6c4- | 
[V:3] A4G8 | 
[V:4] D,2F,2C,8 | 
[V:1] F12 ||  
[V:2] c12 ||  
[V:3] F12 ||  
[V:4] F,,12 ||  
[V:1]  [K:Bb] [K:clef=treble][M:2/1]F8 | 
[V:2]  [K:Bb] [K:clef=treble-8][M:2/1]c8 | 
[V:3]  [K:Bb] [K:clef=treble-8][M:2/1]F8 | 
[V:4]  [K:Bb] [K:clef=bass][M:2/1]F,8 | 
[V:1] F4G4- | 
[V:2] d4e4- | 
[V:3] F4c4- | 
[V:4] D,4C,4- | 
[V:1] G4G4 | 
[V:2] e4e4 | 
[V:3] c4c4 | 
[V:4] C,4C,4 | 
[V:1] G6G2 | 
[V:2] d6d2 | 
[V:3] B6B2 | 
[V:4] G,,6G,,2 | 
[V:1] G4A4- | 
[V:2] =e4f4- | 
[V:3] G4F4 | 
[V:4] C,4F,,4- | 
[V:1] A4A4 | 
[V:2] f4f4 | 
[V:3] A4c4- | 
[V:4] F,,4F,4- | 
[V:1] c8 | 
[V:2] f8 | 
[V:3] c2B2A2G2 | 
[V:4] F,4F,4 | 
[V:1] B4G4 | 
[V:2] d4c4 | 
[V:3] G4G4- | 
[V:4] G,4E,4 | 
[V:1] A8 | 
[V:2] d8 | 
[V:3] G4^F4 | 
[V:4] D,8 | 
[V:1] G4z2G2 | 
[V:2] d4z2d2 | 
[V:3] G4z2D2 | 
[V:4] G,,4z2G,,2 | 
[V:1] G2G4=E2 | 
[V:2] d2c4c2 | 
[V:3] D2=E4G2 | 
[V:4] G,,2C,4C,2 | 
[V:1] F2=E2G4 | 
[V:2] B2cBAGc2 | 
[V:3] F2G2=E4 | 
[V:4] D,2C,2C,B,,A,,G,, | 
[V:1]  [K:F] A8 | 
[V:2]  [K:F] c8 | 
[V:3]  [K:F] F8 | 
[V:4]  [K:F] F,,8 | 
[V:1] B8 | 
[V:2] G4B4 | 
[V:3] D4G4 | 
[V:4] G,,8 | 
[V:1] B4A2G2 | 
[V:2] d8- | 
[V:3] F2B6 | 
[V:4] B,,8 | 
[V:1] F8 | 
[V:2] d8 | 
[V:3] A8 | 
[V:4] D,8 | 
[V:1] F4G4 | 
[V:2] d4e4 | 
[V:3] A4c4 | 
[V:4] D,4C,4 | 
[V:1] A6B2 | 
[V:2] f6d2 | 
[V:3] c6B2 | 
[V:4] F,6G,2 | 
[V:1] G4F4 | 
[V:2] e2c4=B2 | 
[V:3] c4F4 | 
[V:4] C,4D,4 | 
[V:1] E6D2 | 
[V:2] c4c4 | 
[V:3] G8 | 
[V:4] C,8 | 
[V:1] F4z2F2- | 
[V:2] z2c4d2 | 
[V:3] F4z2A2- | 
[V:4] F,,2F,4D,2 | 
[V:1] F2F2G4 | 
[V:2] d4z2e2 | 
[V:3] A2A2G2c2 | 
[V:4] D,4z2C,2 | 
[V:1] z2G2A4 | 
[V:2] f2g2c4 | 
[V:3] c4c2c2 | 
[V:4] F,2E,2F,4 | 
[V:1] A2A2A4 | 
[V:2] A4c4 | 
[V:3] c4F4 | 
[V:4] F,,4F,,4 | 
[V:1] A4z2A2- | 
[V:2] A2c2d2e2 | 
[V:3] z2E2F2E2 | 
[V:4] z2A,,2D,2C,2 | 
[V:1] A2B2c4 | 
[V:2] d4e4 | 
[V:3] F2G2A4 | 
[V:4] D,2B,,2A,,4 | 
[V:1] B2A4G2 | 
[V:2] z2e4d2 | 
[V:3] G2A2B4 | 
[V:4] z8 | 
[V:1] A4z2A2 | 
[V:2] c3BAGF2 | 
[V:3] A4z4 | 
[V:4] z8 | 
[V:1] G2F2B4 | 
[V:2] B3AGFG2 | 
[V:3] z8 | 
[V:4] z8 | 
[V:1] A2F2G4 | 
[V:2] F2f4e2 | 
[V:3] z8 | 
[V:4] z8 | 
[V:1] F4z4 | 
[V:2] f4z4 | 
[V:3] z2B2A2F2 | 
[V:4] D,2D,2D,2F,2- | 
[V:1] z4z2A2 | 
[V:2] z4c2d2- | 
[V:3] G2G2F4 | 
[V:4] F,2E,2F,4 | 
[V:1] B2A4F2 | 
[V:2] d2d2c2f2- | 
[V:3] z8 | 
[V:4] z8 | 
[V:1] G2G2F4 | 
[V:2] f2e2f4 | 
[V:3] z8 | 
[V:4] C,4D,4 | 
[V:1] G8 | 
[V:2] _e8 | 
[V:3] B8 | 
[V:4] _E,8 | 
[V:1] B8 | 
[V:2] f8 | 
[V:3] d8 | 
[V:4] B,,8 | 
[V:1] A8 | 
[V:2] f8 | 
[V:3] c8- | 
[V:4] F,8 | 
[V:1] G4G4- | 
[V:2] e8 | 
[V:3] c8 | 
[V:4] C,8 | 
[V:1] G2^FEF4 | 
[V:2] d8 | 
[V:3] A8 | 
[V:4] D,8 | 
[V:1] G8 | 
[V:2] d4c4 | 
[V:3] G4z2c2- | 
[V:4] G,,4C,4 | 
[V:1] c8 | 
[V:2] z8 | 
[V:3] c2B2A4 | 
[V:4] A,,2G,,2F,,2F,2- | 
[V:1] B4A4 | 
[V:2] z4c2f2- | 
[V:3] G2G2F4 | 
[V:4] F,2E,2F,4 | 
[V:1] G4G4 | 
[V:2] f2e2e2e2 | 
[V:3] z8 | 
[V:4] z2C,2C,2C,2 | 
[V:1] F4z2c2 | 
[V:2] f4z4 | 
[V:3] z2c2B2A2 | 
[V:4] F,,2F,2G,2F,2 | 
[V:1] B2A2G4 | 
[V:2] z8 | 
[V:3] G2c4B2 | 
[V:4] G,2F,2E,4 | 
[V:1] z2c2B2A2 | 
[V:2] f4d2f2 | 
[V:3] A3GG2F2 | 
[V:4] F,4z4 | 
[V:1] G2c3BAG | 
[V:2] e4f2ed | 
[V:3] c3BAGc2- | 
[V:4] C,4F,,4 | 
[V:1] F2B2A2G2- | 
[V:2] c2dBcd_e2 | 
[V:3] cBAGF2c2 | 
[V:4] F,2B,,2F,2_E,2- | 
[V:1] GFF4E2 | 
[V:2] dc2Bc4- | 
[V:3] BAGFG4 | 
[V:4] E,2D,2C,4 | 
[V:1] F8 |]  
[V:2] c8 |]  
[V:3] F8 |]  
[V:4] F,,8 |]  



